X:0739
T:Miss Graham of Inchbrakie's Strathspey.
M:C
L:1/8
Q:1/4=120
I: :: ||
Z:Jack Campin * www.campin.me.uk * 2009
K:D
A   |d>e {de}f>e   dBAF |DA       dc/d/    eEEA |d>ef>e   dBAF |AABc   d2d:|
f/g/|a>b     ag/f/ d'afd|gb/g/    fa/f/   Te>def|ab ag/f/ d'afd|g>ef>c d2df|
     ab      ag/f/ d'afd|g/b/a/g/ f/a/g/f/ e>def|A>df>e   d>BAF|A<AB>c d2d|]

